X: 33179
T: Private Ass And Cart
R: reel
M: 4/4
K: Gmajor
dc|:~B3 c dcAc|BGGB d2 cA|~B3 c d2 cA|d2 cA BG G2|
~B3c dcAc|BGGB d2 cA|~B3 c dg ~g2|1 fdcA BG ~G2:|2 fdcA BG B/c/d||
fgaf ~g2 fd|dcAc d2 de|fgaf ~g2 fd|dcAc BG G2|
fgaf ~g2 fd|dcAc d2 de|fgaf gbag|fdcA BG B/c/d|
fgaf ~g2 fd|dcAc d2 B/c/e|fgaf g/f/g fd|dcAc BG B/c/d|
fgaf g z fd|dcAc d2 de|fgaf g2 b/a/g|fdcA BG||

